!!!OTL: WIR PREUSSISCHE HUSAREN
!!!ARE: Europa, Mitteleuropa, Deutschland, Bayern, Bayreuth
!!!SCT: E1317
!!!YEM: Copyright 1995, estate of Helmut Schaffrath.
**kern
*ICvox
*Ivox
*M2/4
*k[f#]
*G:
{8d
=1
8d
8g
8g
8g
=2
4g
8a}
{8a
=3
8a
8b
8b
8b
=4
4b
8r}
{8a
=5
8b
8a
8b
8cc
=6
4dd
8cc}
{8b
=7
4a
4a
=8
4a
8r}
{8dd
=9
8b
8dd
8dd
8dd
=10
4ee
8ee}
{8dd
=11
8cc
8b
8cc
8ee
=12
4.dd}
{8cc
=13
8.b
16a
8b
8cc
=14
8dd
8cc
8cc}
{8cc
=15
4b
4a
=16
4g
8r}
{8dd
=17
8b
8dd
8dd
8dd
=18
4ee
8ee}
{8dd
=19
8cc
8b
8cc
8ee
=20
4.dd}
{8cc
=21
8.b
16a
8b
8cc
=22
8dd
8cc
8cc}
{8cc
=23
4b
4a
=24
4g
8r}
==
!!!AGN: Staende -, Soldaten -, Kriegs - Lied
!!!ONB: ESAC (Essen Associative Code) Database: ERK3
!!!AMT: simple duple
!!!AIN: vox
!!!EED: Helmut Schaffrath
!!!EEV: 1.0
*-
